X:1
T:Title
%%score { ( 1 4 ) | ( 2 3 ) }
L:1/8
M:4/4
K:Ab
V:1 treble nm="Grand Piano"
V:4 treble 
V:2 bass 
V:3 bass 
V:1
 z4 z2[Q:1/4=100] [CA][DB] | [Ec]2 [Ec]2 [Ec]2 [Ec]2 | [Fc]2 [Ec]4 [Ec][Ec] | c2 B2 A2 B2 | %4
[M:3/4] [Ec]2 [CA]4 |[M:1/4] [A,A]-[A,EA] |[M:4/4] [EFA]2 [FA]2 [Fd]2 [=EA]2 | %7
 [Ec]2 [Ec]4 [Ec][Ec] | [Ec]2 [EB]2 [=DB]3 F |[M:3/4] B2 B4 |[M:1/4] EE | %11
[M:4/4] [CE]2 [CF]2 [DG]2 [DB]2 | [EA]6 [A,EF][A,EF] | [A,=DF]2 [G,DG]2 [DA]2 [Dc]2 |[M:3/4] B6 | %15
[M:1/4] cc |[M:4/4] c2 c2 c2 c2 | d2 d4 d2 | [Bd]2 [Ad]2 [Gd]2 d2 |[M:3/4] c2 c4 |[M:1/4] [Ec]2 | %21
[M:4/4] [Ec]2 [Ec]2 [FA]2 [=EB]2 | [Ec]6 [CA]2 | [CA]2 [A,EA]2 [A,F]2 [B,=EG]2 |[M:3/4] [CEA]6 |] %25
V:2
 z4 z2 [A,,A,]2 | [A,,A,]2 [A,,E,A,]2 [A,,C,A,]2 [A,,E,A,]2 | z4 z2 A,2 | %3
 [E,G,E]2 [E,G,D]2 [E,A,C]2 [E,G,E]2 |[M:3/4] [A,,A,]2 [A,,E,]4 |[M:1/4] A,,C, | %6
[M:4/4] D,2 [D,F,D]2 [D,A,]2 [D,A,]2 | [A,,A,]2 [A,,A,]4 [A,,A,]2 | %8
 [B,,A,]2 [B,,G,]2 [B,,F,]3 [=D,A,] |[M:3/4] [E,A,E]2 [E,G,E]4 |[M:1/4] [E,G,D][E,G,D] | %11
[M:4/4] [A,,A,]2 [A,,A,]2 [B,,E,]2 [B,,E,]2 | E,2 z2 z4 | B,,2 B,,2 [B,,F,]2 [B,,A,]2 | %14
[M:3/4] [E,E]6 |[M:1/4][K:treble] [A,E][A,E] |[M:4/4] [A,E]2 [A,CF]2 [A,EG]2 [A,EA]2 | %17
 [B,EA]2 [B,EG]4 [A,EF]2 | [G,E]2 [F,E]2 [E,B,]2[K:treble] [G,B,F]2 | %19
[M:3/4] [A,F]2[K:bass] [A,E]4 |[M:1/4] [A,,A,]2 |[M:4/4] [A,,A,]2 [C,A,]2 [D,A,]2 [D,A,]2 | %22
 [A,,A,]6 [A,,E,]2 | [A,,E,]2 C,2 D,2 D,2 |[M:3/4] A,,6 |] %25
V:3
 x8 | x8 | [A,,A,]2 [A,,A,]4 A,,C, | x8 |[M:3/4] x6 |[M:1/4] x2 |[M:4/4] x8 | x8 | x8 |[M:3/4] x6 | %10
[M:1/4] x2 |[M:4/4] x8 | C,2- [C,A,]4 _C,C, | x8 |[M:3/4] A,2 z2 z2 |[M:1/4][K:treble] x2 | %16
[M:4/4] x8 | x8 | x6[K:treble] x2 |[M:3/4] x2[K:bass] x4 |[M:1/4] x2 |[M:4/4] x8 | x8 | x8 | %24
[M:3/4] x6 |] %25
V:4
 x8 | x8 | x8 | x8 |[M:3/4] x6 |[M:1/4] C z |[M:4/4] x8 | x8 | x8 |[M:3/4] x6 |[M:1/4] x2 | %11
[M:4/4] x8 | x8 | x8 |[M:3/4] z2 G,4 |[M:1/4] x2 |[M:4/4] x8 | x8 | x8 |[M:3/4] x6 |[M:1/4] x2 | %21
[M:4/4] x8 | x8 | x8 |[M:3/4] x6 |] %25

